X:321
T:Sean Reid's
T:Gilbert Clancy's
R:reel
D:Mary Bergin: Feadoga Stain
Z:id:hn-reel-321
M:C|
K:G
DG~G2 BG~G2|cA~A2 dcAd|DG~G2 ~B3d|cAdc AGGF|
DG~G2 BG~G2|cA~A2 dcAd|~g3a gfde|1 fdcA AGGF:|2 fdcA AGBd||
|:g2ag gfde|fefg afaf|dg~g2 gfde|fdcA AGBd|
g2ag gfde|fefg afaf|1 ~g3a gfde|fdcA AGBd:|2 dg~g2 bgag|fdcA AGGF||
P:Variations:
|:DG~G2 ~B3d|cA~A2 dBBA|DG~G2 BG~G2|cAdc AGGF|
GD~D2 BD~D2|cD~D2 dcAd|g2ag gfde|1 fdcA AGGF:|2 fdcA AG~G2||
|:dg~g2 gfde|f2ge fdcA|dg~g2 gfde|fdcA AG~G2|
dg~g2 gfde|fdge fdcA|1 dg~g2 gfde|fdcA AGBd:|2 dg~g2 bgag|fdcA AGGF||

